images/svg/heart.svg

<svg xmlns="http://www.w3.org/2000/svg" width="39" height="36" fill="none">
  <path fill="#000" d="M12 6H9v3h3V6ZM15 6h-3v3h3V6ZM9 9H6v3h3V9ZM9 12H6v3h3v-3ZM9 15H6v3h3v-3ZM18 6h-3v3h3V6ZM12 18H9v3h3v-3ZM15 21h-3v3h3v-3ZM18 24h-3v3h3v-3ZM27 6h3v3h-3V6ZM24 6h3v3h-3V6ZM30 9h3v3h-3V9ZM30 12h3v3h-3v-3ZM30 15h3v3h-3v-3ZM21 6h3v3h-3V6ZM27 18h3v3h-3v-3ZM24 21h3v3h-3v-3ZM21 24h3v3h-3v-3ZM21 9h-3v3h3V9ZM21 27h-3v3h3v-3Z"/>
</svg>

<svg width="39.000000" height="36.000000" viewBox="0 0 39 36" fill="none" xmlns="http://www.w3.org/2000/svg" xmlns:xlink="http://www.w3.org/1999/xlink">
	<desc>
			Created with Pixso.
	</desc>
	<defs>
		<clipPath id="clip0_1575">
			<rect id="heart in paths" rx="0.000000" width="38.000000" height="35.000000" transform="translate(0.500000 0.500000)" fill="white" fill-opacity="0"/>
		</clipPath>
	</defs>
	<rect id="heart in paths" rx="0.000000" width="38.000000" height="35.000000" transform="translate(0.500000 0.500000)" fill="#FFFFFF" fill-opacity="0"/>
	<g clip-path="url(#clip0_1575)">
		<path id="Vector" d="M12 6L9 6L9 9L12 9L12 6ZM15 6L12 6L12 9L15 9L15 6ZM9 9L6 9L6 12L9 12L9 9ZM9 12L6 12L6 15L9 15L9 12ZM9 15L6 15L6 18L9 18L9 15ZM18 6L15 6L15 9L18 9L18 6ZM12 18L9 18L9 21L12 21L12 18ZM15 21L12 21L12 24L15 24L15 21ZM18 24L15 24L15 27L18 27L18 24ZM27 6L30 6L30 9L27 9L27 6ZM24 6L27 6L27 9L24 9L24 6ZM30 9L33 9L33 12L30 12L30 9ZM30 12L33 12L33 15L30 15L30 12ZM30 15L33 15L33 18L30 18L30 15ZM21 6L24 6L24 9L21 9L21 6ZM27 18L30 18L30 21L27 21L27 18ZM24 21L27 21L27 24L24 24L24 21ZM21 24L24 24L24 27L21 27L21 24ZM21 27L18 27L18 30L21 30L21 27ZM21 9L18 9L18 12L21 12L21 9Z" fill="#000000" fill-opacity="1.000000" fill-rule="nonzero"/>
		<path id="Vector" d="M12 9L9 9L9 12L12 12L12 9ZM15 12L12 12L12 15L15 15L15 12ZM18 9L15 9L15 12L18 12L18 9ZM12 15L9 15L9 18L12 18L12 15ZM15 15L12 15L12 18L15 18L15 15ZM15 18L12 18L12 21L15 21L15 18ZM18 12L15 12L15 15L18 15L18 12ZM18 21L15 21L15 24L18 24L18 21ZM18 18L15 18L15 21L18 21L18 18ZM27 9L30 9L30 12L27 12L27 9ZM24 9L27 9L27 12L24 12L24 9ZM27 12L30 12L30 15L27 15L27 12ZM24 12L27 12L27 15L24 15L24 12ZM21 9L24 9L24 12L21 12L21 9ZM27 15L30 15L30 18L27 18L27 15ZM24 15L27 15L27 18L24 18L24 15ZM24 18L27 18L27 21L24 21L24 18ZM21 12L24 12L24 15L21 15L21 12ZM21 21L24 21L24 24L21 24L21 21ZM21 18L24 18L24 21L21 21L21 18ZM21 21L18 21L18 24L21 24L21 21ZM21 24L18 24L18 27L21 27L21 24Z" fill="#FF0000" fill-opacity="1.000000" fill-rule="nonzero"/>
		<path id="Vector" d="M18 15L15 15L15 18L18 18L18 15ZM21 15L24 15L24 18L21 18L21 15ZM21 15L18 15L18 18L21 18L21 15ZM21 12L18 12L18 15L21 15L21 12ZM21 18L18 18L18 21L21 21L21 18Z" fill="#FFFFFF" fill-opacity="1.000000" fill-rule="nonzero"/>
		<path id="Vector" d="M36 13L39 13L39 16L36 16L36 13ZM27 27L30 27L30 30L27 30L27 27ZM18 33L21 33L21 36L18 36L18 33ZM9 27L12 27L12 30L9 30L9 27ZM24 0L27 0L27 3L24 3L24 0ZM33 3L36 3L36 6L33 6L33 3ZM3 3L6 3L6 6L3 6L3 3ZM12 0L15 0L15 3L12 3L12 0ZM0 13L3 13L3 16L0 16L0 13Z" fill="#FF0000" fill-opacity="1.000000" fill-rule="nonzero"/>
	</g>
</svg>
